src/pos-icons/message-video.svg

<svg height="24" viewBox="0 0 24 24" width="24" xmlns="http://www.w3.org/2000/svg"><path d="m18 14-4-3.2v3.2h-8v-8h8v3.2l4-3.2m2-4h-16a2 2 0 0 0 -2 2v18l4-4h14a2 2 0 0 0 2-2v-12c0-1.11-.9-2-2-2z"/></svg>

<?xml version="1.0" encoding="UTF-8"?><!DOCTYPE svg PUBLIC "-//W3C//DTD SVG 1.1//EN" "http://www.w3.org/Graphics/SVG/1.1/DTD/svg11.dtd"><svg xmlns="http://www.w3.org/2000/svg" xmlns:xlink="http://www.w3.org/1999/xlink" version="1.1" id="mdi-message-video" width="24" height="24" viewBox="0 0 24 24"><path d="M18,14L14,10.8V14H6V6H14V9.2L18,6M20,2H4A2,2 0 0,0 2,4V22L6,18H20A2,2 0 0,0 22,16V4C22,2.89 21.1,2 20,2Z" /></svg>
